assets/automatic1111sdwebui/original.svg

<svg fill="#e00054" viewBox="0 0 24 24" xmlns="http://www.w3.org/2000/svg"><path d="m8.462 3.5h2.924l8.33 17h-1.46l-7.639-15.558-1.442.001z" opacity=".8"/><path d="m5.474 20.5 2.817-5.366 2.873 5.366h5.541l-8.362-17-8.343 17z"/><path d="m12.768 3.501 8.345 16.999h1.46l-8.335-16.996z" opacity=".4"/><path d="m14.195 3.501 8.345 16.999h1.46l-8.334-16.996z" opacity=".2"/><path d="m11.34 3.501 8.343 16.999h1.464l-8.337-16.996z" opacity=".6"/></svg>

<svg xmlns="http://www.w3.org/2000/svg" fill="#e00054" viewBox="0 0 24 24"><title>Automatic1111 (SD Webui)</title><path d="M8.462 3.5h2.924l8.33 17h-1.46L10.617 4.942l-1.442.001z" opacity=".8"/><path d="m5.474 20.5 2.817-5.366 2.873 5.366h5.541l-8.362-17L0 20.5z"/><path d="M12.768 3.501 21.113 20.5h1.46L14.238 3.504z" opacity=".4"/><path d="M14.195 3.501 22.54 20.5H24L15.666 3.504z" opacity=".2"/><path d="M11.34 3.501 19.683 20.5h1.464L12.81 3.504z" opacity=".6"/></svg>
